X:82
T:All's Well
M:2/4
L:1/8
B:Thompson's Compleat Collection of 200 Favourite Country Dances, vol. 3 (London, 1773)
Z:Transcribed and edited by Flynn Titford-Mock, 2007
Z:abc's:AK/Fiddler's Companion
K:G
g2 dB | e2 cA | BdcB | A/G/F/E/ D2 | g2 dB | e2 cA | Bd cB/A/ | G2 [G,2G2] :|
|: (B/4c/<d) (B/4c/<d) | e2 gg | (e/4f/<g) (f/4g/<a) | (g/4a/<b) g2 | (B/4c/<d)
(B/4c/<d) | ec c2 | Bd cB/A/ | G2 [G,2G2] :|

